X:999
T:Journey to Skye
C: Donald Thompson
B: 
O:Arranged by Kevin Fraser
Z:Kevin Fraser
Q:1/4=90
M:4/4
L:1/16
R:March
V:1 gstem=up stem=down
V:2 gstem=up stem=down
I:MIDI=program 110
K:HP
%%MIDI gracedivider 4
%%MIDI gchord
%%MIDI beatstring 
%%landscape
{f}(g4 g2)fg	{a}(e4 e2){g}fg	|a4 {3:2}a2f2{g}d2) {g}(e4 e2)A2	| {g}G4	A8 | A16	||
V:2 Harmony
{g}(A4 A2)dg {a}(f4 f2)d2 | {gef}e2(G2 G4)Bd {gcd}c3AB2  | {g}(A4 A2)dg {a}(f4 f2)d2 | {g}e2(a2 a8)                |
{g}(A4 A2)dg | {a}(f4 f2)d2 | {gef}(e16 | e2){g}(A2 A2)dg {a}(f4 f2)d2 | {g}e2(a2 a8) |
{g}af{a}(g2 g8)	{e}f2{gef}ed | {g}fd{gef}(e2 e8)| {gde}d2cA {GdG}(B8 B2)e2 | {g}(G4 A4 A4) ||
{g}(A4	A2)dg | {a}(f4 f2)d2 | {gef}(e16 | e2) {g}(A2  A2)dg {a}(f4 f2)d2	| {g}e2 (a2 a12	|
{f}(g4 g2)fg	{a}(e4 e2){g}fg	|a4 {3:2s a2f2{g}d2) {g}(e4 e2)A2	| {g}G4	A8 | A16	||
T: "Faster"
{g}d2gf {g}e2fd	{g}e2ag {ag}(a a4|  a16) | g2fd {g}e2cA {g}d2cA {g}B2AG	| {g}A16 |t
{g}d2gf {g}e2fd	{g}e2ag	{ag}(a a4|  a16) | {f}g3f		{gf}g2 {ag}a a2		f2)ed {gef}e2 A2 |{g}G2BG {g}A4  A8	||
T: "Tempo"
M:6/8
{a}g4{GdG}g2 f3ed2 | {g}f4{GdG}f2 e3dc2 |{gde}d3cd2 {g}c3ea2 | g3fd2 {gef}(e6	| e12)	|
{a}g4{GdG}g2 f3ed2 | {g}f4{GdG}f2 e3dc2	|{gde}d3cd2 {g}c3ea2 | g3fd2 {gef} e6	|
{g}d3cde {gcd}c3B{G}A2| {g}B3{d}ce2 {ag}(a4 |  a8 | a8 	| a8) 	||
M:4/4
(A4 A2)dg {a}(f4 f2)d2 | {gef}(e16 | e2){g}(A2 A2)dg {a}(f4 f2)d2 | {g}e2(a2 a8) |
{g}af{a}(g2 g8)	{e}f2{gef}ed | {g}fd{gef}(e2 e8)| {gde}d2cA {GdG}(B8 B2)e2 ||
"Drum in Tempo (Slow March)",(I,L,0,0,arial,11,700,0,0,0,0,0,0) 
M:3/4
{g}(G4	A8 | A8|  A8 | A8 | A8 | A8 | A8 | A8) ||
T: P2
a2gf {a}g8 |^thg g8 'hg	| {a}g2fe {g}f8	| ^tf f8 'f | {g}f2)ed {g}(e8 | e8) ^te e2{gf}g2 | G2 'lg dg A  A8 | A8 ||
{g}f2)ed {g}e8	| ^te e8  ^te e2{gf}g2	||
M:6/8 
G4 dg A2 A4 | A8|  A8 | A8 | A8 | A8 | A8 | A8 ||









